tools/download-figma-icons/icons/solid/shovel.svg

<svg width="25" height="25" viewBox="0 0 25 25" fill="none" xmlns="http://www.w3.org/2000/svg">
<path d="M24.4132 5L20.0556 0.607686C19.9838 0.533239 19.8977 0.474022 19.8025 0.433575C19.7072 0.393128 19.6048 0.372282 19.5013 0.372282C19.3978 0.372282 19.2954 0.393128 19.2001 0.433575C19.1049 0.474022 19.0188 0.533239 18.947 0.607686L17.1454 2.53076C17.0517 2.63261 16.9873 2.75782 16.9588 2.89319C16.9304 3.02856 16.939 3.1691 16.9837 3.29999L17.9615 5.91538L8.46872 15.4538L5.92807 12.9154C5.78382 12.7721 5.58869 12.6917 5.3853 12.6917C5.1819 12.6917 4.98677 12.7721 4.84252 12.9154L2.1479 15.6077C0.0460877 17.6692 -1.06256 20.9923 1.47039 23.5308C1.89864 23.985 2.41353 24.3489 2.98473 24.6013C3.55593 24.8536 4.17189 24.9892 4.79633 25C6.55534 24.9059 8.21013 24.1371 9.41569 22.8538L12.1103 20.1615C12.1825 20.09 12.2398 20.0049 12.2788 19.9112C12.3179 19.8175 12.3381 19.7169 12.3381 19.6154C12.3381 19.5138 12.3179 19.4133 12.2788 19.3196C12.2398 19.2258 12.1825 19.1407 12.1103 19.0692L9.54657 16.5385L19.0548 7.04615L21.6724 8.03076C21.7587 8.06209 21.85 8.07772 21.9419 8.07692C22.1364 8.07625 22.3234 8.00205 22.4654 7.86923L24.3901 6.06923C24.4666 5.99839 24.5279 5.91277 24.5702 5.81757C24.6125 5.72236 24.6351 5.61956 24.6365 5.51538C24.6297 5.32161 24.55 5.13754 24.4132 5ZM7.47556 18.6615L4.39599 21.7385C4.32441 21.8106 4.23926 21.8678 4.14544 21.9068C4.05163 21.9459 3.951 21.966 3.84936 21.966C3.74773 21.966 3.6471 21.9459 3.55328 21.9068C3.45946 21.8678 3.37431 21.8106 3.30274 21.7385C3.23058 21.667 3.1733 21.5819 3.13421 21.4881C3.09513 21.3944 3.075 21.2939 3.075 21.1923C3.075 21.0908 3.09513 20.9902 3.13421 20.8965C3.1733 20.8027 3.23058 20.7177 3.30274 20.6462L6.38231 17.5692C6.52728 17.4244 6.72391 17.343 6.92894 17.343C7.13396 17.343 7.33059 17.4244 7.47556 17.5692C7.62053 17.7141 7.70198 17.9105 7.70198 18.1154C7.70198 18.3202 7.62053 18.5167 7.47556 18.6615ZM21.7648 6.42307L19.4551 5.55384L18.5928 3.24615L19.5244 2.25384L22.7579 5.47692L21.7648 6.42307Z" fill="black"/>
</svg>

<svg xmlns="http://www.w3.org/2000/svg" width="25" height="25" fill="none" viewBox="0 0 25 25"><path fill="currentColor" d="M24.413 5 20.056.608a.77.77 0 0 0-1.109 0L17.145 2.53a.77.77 0 0 0-.161.769l.977 2.615-9.492 9.539-2.54-2.539a.77.77 0 0 0-1.086 0l-2.695 2.693c-2.102 2.061-3.21 5.384-.678 7.923A4.68 4.68 0 0 0 4.796 25a6.84 6.84 0 0 0 4.62-2.146l2.694-2.692a.767.767 0 0 0 0-1.093l-2.563-2.53 9.508-9.493 2.617.985a.77.77 0 0 0 .793-.162l1.925-1.8a.77.77 0 0 0 .247-.554.77.77 0 0 0-.224-.515M7.476 18.662l-3.08 3.076a.77.77 0 0 1-1.093 0 .77.77 0 0 1 0-1.092l3.08-3.077a.774.774 0 0 1 1.093 1.093m14.289-12.24-2.31-.87-.862-2.307.931-.992 3.234 3.223z"/></svg>
